packages/icons/web/refresh_small.svg

<svg width="24" height="24" viewBox="0 0 24 24" fill="none" xmlns="http://www.w3.org/2000/svg">
<path d="M6 14.1241C6.37182 15.5422 7.21936 16.7951 8.40523 17.6798C9.59111 18.5646 11.0458 19.0293 12.5336 18.9986C14.0214 18.9679 15.4551 18.4436 16.6022 17.5108C17.7494 16.578 18.5429 15.2912 18.854 13.859C19.1652 12.4269 18.9757 10.9333 18.3165 9.62036C17.6572 8.3074 16.5667 7.25203 15.2218 6.62529C13.8768 5.99855 12.3562 5.83717 10.9064 6.16731C9.45657 6.49744 8.16253 7.29975 7.23399 8.44419L6 10" stroke="#212933" stroke-width="2" stroke-linecap="round" stroke-linejoin="round"/>
<path d="M5.5 6.5L5.5 10.5L9 10.5" stroke="#212933" stroke-width="2" stroke-linecap="round" stroke-linejoin="round"/>
</svg>

<svg width="24" height="24" fill="none" xmlns="http://www.w3.org/2000/svg">
    <path d="M6 14.124a6.495 6.495 0 002.405 3.556 6.676 6.676 0 004.129 1.319 6.668 6.668 0 004.068-1.488 6.483 6.483 0 002.252-3.652 6.407 6.407 0 00-.537-4.239 6.556 6.556 0 00-3.095-2.995 6.702 6.702 0 00-4.316-.458 6.619 6.619 0 00-3.672 2.277L6 10" stroke="currentColor" stroke-width="2" stroke-linecap="round" stroke-linejoin="round"/>
    <path d="M5.5 6.5v4H9" stroke="currentColor" stroke-width="2" stroke-linecap="round" stroke-linejoin="round"/>
</svg>
